X:1
T:In piaga di dolore
T:Marc'Antonio Tornioli
T:Source : Canzonette spirituali a tre voci---Libro Primo---Venetia---Ang.Gardano---1607. Editor : André Vierendeels (22/06/16).
T:Notes : Original clefs : G2, G2 F3 Editorial accidentals above the staff Text by Angelo Grillo ( Pietosi affetti) 
T:In piaga di dolore
T:©
T:©
T:©
C:Marc'Antonio Tornioli
Z:©
%%score [ 1 2 3 ]
L:1/8
Q:1/4=100
M:4/4
K:C
V:1 treble nm="Soprano 1" snm="S 1"
V:2 treble nm="Soprano 2" snm="S 2"
V:3 bass nm="Bass" snm="B"
V:1
 z4 d4 | e2 d2 e2 f2 | d4 e4 | f4 f2 ff | e6 e2 | e8 | fgfe dcdB | c6 c2 | d8 |1 e8 :: c4 z4 |2 %11
w: In|pia- ga di do-|lo- *|re, te- ne- ro|par- go-|let-|to mo- stri la pia- ga dell' in-|ter- no'af-|fet-|to.||
w: O|che fe- li- ce|sta- *|to, o che gio-|con- da|vi-|ta, pro- met- ti Dio Bam- bin da|tua fe-|ri-|ta,-|ta,|
 z2 A2 d2 c2 || d4 c4 | c2 d2 e4 | g2 fe d2 c2 | A2 c2 cA d2- | d2 ^cB c4 | d4 e4 | d2 c2 A2 e2 | %19
w: Son quel- le|do- glie|ri- * e,|e quel- le'of- fe- se|tue di- fe- se mi-||e, tua|pia- ga mia vit-|
w: Tu bev' il|lat- te'in-|fan- * te,|e in san- gue a|noi por- gi hor co-|* me'a- * man-|te, e|so- pra'i fi- gli|
 dcBA Bcde | d2 e2 d4 | e4 z2 e2 | d2 cB c2 BA | B4 A4 | A4 G4 | E2 e2 c2 e2 | ^f2 g3 f/e/ f2 | %27
w: to- * * * * * * *|* * ri-|a, tuo|san- * * * * *|* gue|mio tri-|om- fo'e tu mia|glo- * * * ri-|
w: Re- * * * * * * *||i, gia|Sal- * * * * *|* va-|to- r'e|gia sa- lu- te|se- * * * *|
 g8 |] %28
w: a.|
w: i.|
V:2
 B8 | G2 B2 A2 A2 | _B8 | A8 | c2 cc c2 B2 | ^c2 d4 c2 | d4 f4 | edcB AGAc | B2 c3 B/A/ B2 |1 c8 :: %10
w: In|pia- ga di do-|lo-|re,|te- ne- ro par- go-|let- * *|to, mo-|stri la pia- ga dell' in- ter- no'af-|fet- * * * *||
w: O|che fe- li- ce|sta-|to,|o che gio- con- da|vi- * *|ta, pro-|met- ti Dio Bam- bin da tua fe-|ri- * * * *|ta,|
 c2 G2 c2 B2 |2 c4 F4 || z4 A4 | A4 ^G4 | z4 B2 AG |"^-natural" ^F2 G2 A3 F | E2 E2 E4 | ^F4 G4 | %18
w: to. Son quel- lo|do- glie|ri-|* e,|e quel- le'of-|fe- se tue di-|fe- se mi-|e, tua|
w: ta. Tu bev' il|lat- te|in-|fan- te|e'in san- gue'a|noi por- gi hor|co- me'a- man-|te, e|
 B2 c2 c2 c2 | Bcdc BABc | B2 c4 B2 | c6 G2 | B2 AG A2 GF | G2 g2 f2 ed | e2 dc d2 e2 | %25
w: pia- ga mia vit-|to- * * * * * * *|* ri- *|a, tuo|san- * * * * *|* gue mio _ _|_ _ _ _ tri-|
w: so- pra'i fi- gli|Re- * * * * * * *||i, gia|Sal- * * * * *|* va- to- * *|* * * * r'e|
 c2 G2 A2 c2 | A8 | G8 |] %28
w: om- fo'e tu mia|glo-|ria.|
w: gia sa- lu- te|se-|i.|
V:3
 G,8 | C,2 B,,2 C,2 D,2 | G,8 | F,8 | A,2 A,A, A,2 ^G,2 | A,8 | D,4 D4 | CB,A,G, F,E,F,C, | G,8 |1 %9
w: In|pia- ga di do-|lo-|re,|te- ne- re par- go-|let-|to, mo-|stri la pia- ga dell' in- ter- no'af-|fet-|
w: O|che fe- li- ce|sta-|to,|o che gio- con- da|vi-|ta, pro-|met- ti Dio Bam- bin da tua fe-|ri-|
 C,8 :: C,4 z4 |2 z2 F,2 _B,2 A,2 || _B,4 A,4 | F,4 E,4 | E,2 D,C, B,,2 C,2 | D,2 E,2 F,2 D,2 | %16
w: to.||Son quel- le|do- glie|ri- e,|e quel- le'of- fe- se|tue di- fe- se|
w: ta,|ta.|Tu bev' il|lat- te'in-|fan- te,|e'in san- gue'a noi por-|gi hor co- me'a-|
 A,8 | D,4 C,4 | G,2 A,2 F,2 E,2 | G,8- | G,8 | C,8 | z8 | G,4 D4 | C2 B,A, B,2 A,G, | %25
w: mi-|e, tua|pia- ga mia vit-|to-||ria,||mio tri-|om- * * * * *|
w: man-|te, e|so- pra'i fi- gli|Re-||i,||Sal- va|to- * * r'e _ _|
 A,2 E,2 F,2 C,2 | D,8 | G,8 |] %28
w: * fo'e tu mia|glo-|ria.|
w: gia sa- lu- te|se-|i.|

